app/images/icon-device-tablet-android.svg

<svg xmlns="http://www.w3.org/2000/svg" width="32" height="32" viewBox="0 0 32 32"><style>path,rect{fill:#505050}#screen{fill-opacity:.1}#icon{fill-opacity:.6}</style><path id="body" d="M26 32H6c-1.1 0-2-.9-2-2V2c0-1.1.9-2 2-2h20c1.1 0 2 .9 2 2v28c0 1.1-.9 2-2 2zM25 3H7v26h18V3z"/><path id="screen" class="cls-2" d="M7 3h18v26H7z"/><path id="icon" d="M11 20c0 .6.4 1 1 1h8c.6 0 1-.4 1-1v-2H11v2zm0-3h10c0-1.7-.9-3.2-2.2-4.1l1.4-1.4c.2-.2.2-.5 0-.7s-.5-.2-.7 0l-1.6 1.6c-.6-.3-1.2-.4-1.9-.4s-1.4.1-2 .4l-1.7-1.7c-.2-.2-.5-.2-.7 0-.2.2-.2.5 0 .7l1.5 1.5c-1.3.9-2.1 2.4-2.1 4.1zm7.2-2.5c.4 0 .8.3.8.8s-.3.7-.8.7-.8-.3-.8-.8c.1-.4.4-.7.8-.7zm-4.5 0c.4 0 .7.3.7.7 0 .4-.3.7-.7.7s-.7-.2-.7-.6c0-.4.3-.8.7-.8z"/></svg>

<?xml version="1.0"?>
<!-- This Source Code Form is subject to the terms of the Mozilla Public
   - License, v. 2.0. If a copy of the MPL was not distributed with this
   - file, You can obtain one at http://mozilla.org/MPL/2.0/. -->
<svg xmlns="http://www.w3.org/2000/svg" xmlns:xlink="http://www.w3.org/1999/xlink" width="32" height="32" viewBox="0 0 32 32">
  <style>
    path, rect {
      fill: #505050;
    }

    #screen {
      fill-opacity: .1;
    }

    #icon {
      fill-opacity: .6;
    }
  </style>

  <path id="body" d="M26,32H6c-1.1,0-2-0.9-2-2V2c0-1.1,0.9-2,2-2h20c1.1,0,2,0.9,2,2v28C28,31.1,27.1,32,26,32z M25,3H7 v26h18V3z"/>
  <rect id="screen" class="cls-2" x="7" y="3" width="18" height="26"/>
  <path id="icon" d="M11,20c0,0.6,0.4,1,1,1h8c0.6,0,1-0.4,1-1v-2H11V20z M11,17h10c0-1.7-0.9-3.2-2.2-4.1l1.4-1.4 c0.2-0.2,0.2-0.5,0-0.7s-0.5-0.2-0.7,0v0l-1.6,1.6C17.3,12.1,16.7,12,16,12c-0.7,0-1.4,0.1-2,0.4l-1.7-1.7c-0.2-0.2-0.5-0.2-0.7,0 c-0.2,0.2-0.2,0.5,0,0.7l1.5,1.5C11.8,13.8,11,15.3,11,17z M18.2,14.5L18.2,14.5c0.4,0,0.8,0.3,0.8,0.8S18.7,16,18.2,16 s-0.8-0.3-0.8-0.8C17.5,14.8,17.8,14.5,18.2,14.5z M13.7,14.5L13.7,14.5c0.4,0,0.7,0.3,0.7,0.7c0,0.4-0.3,0.7-0.7,0.7 S13,15.7,13,15.3C13,14.9,13.3,14.5,13.7,14.5z"/>

</svg>
